image/benefits/icon-4.svg

<svg width="48" height="48" viewBox="0 0 48 48" fill="none" xmlns="http://www.w3.org/2000/svg">
<path fill-rule="evenodd" clip-rule="evenodd" d="M19.4859 11.9257C19.1906 12.1876 18.9025 12.4625 18.6222 12.7506C12.5197 19.0226 12.451 29.1208 18.4688 35.3057C24.4865 41.4906 34.312 41.42 40.4145 35.148C46.5171 28.876 46.5858 18.7777 40.568 12.5928C37.5912 9.53332 33.6825 8.00456 29.7537 8L29.7537 10C33.1668 10.0058 36.5562 11.3376 39.1346 13.9876C44.3793 19.378 44.3459 28.2395 38.9811 33.7533C33.6446 39.238 25.1157 39.2692 19.9022 33.911C14.6574 28.5206 14.6908 19.6591 20.0557 14.1453C20.3016 13.8925 20.5543 13.6514 20.8131 13.4218L19.4859 11.9257Z" fill="#2E2E2E"/>
<path d="M8 32C7.44772 32 7 32.4477 7 33C7 33.5523 7.44772 34 8 34V32ZM17 34H18V32H17V34ZM8 34H17V32H8V34Z" fill="#2E2E2E"/>
<path d="M15 21H3" stroke="#2E2E2E" stroke-width="2" stroke-linecap="round"/>
<path d="M15 27H3" stroke="#2E2E2E" stroke-width="2" stroke-linecap="round"/>
<path d="M8 14C7.44772 14 7 14.4477 7 15C7 15.5523 7.44772 16 8 16L8 14ZM17 16L18 16L18 14L17 14L17 16ZM8 16L17 16L17 14L8 14L8 16Z" fill="#2E2E2E"/>
<path d="M23 21.5714L28.8333 28L37 19" stroke="#C63031" stroke-width="2"/>
</svg>

<svg width="48" height="48" fill="none" xmlns="http://www.w3.org/2000/svg"><path fill-rule="evenodd" clip-rule="evenodd" d="M19.486 11.926a16.23 16.23 0 0 0-.864.825c-6.102 6.272-6.171 16.37-.153 22.555 6.017 6.185 15.843 6.114 21.945-.158 6.103-6.272 6.172-16.37.154-22.555A15.043 15.043 0 0 0 29.754 8v2a13.062 13.062 0 0 1 9.38 3.988c5.245 5.39 5.212 14.252-.153 19.765-5.336 5.485-13.865 5.516-19.079.158-5.245-5.39-5.211-14.252.154-19.766.246-.252.498-.494.757-.723l-1.327-1.496Z" fill="#2E2E2E"/><path d="M8 32a1 1 0 1 0 0 2v-2Zm9 2h1v-2h-1v2Zm-9 0h9v-2H8v2Z" fill="#2E2E2E"/><path d="M15 21H3M15 27H3" stroke="#2E2E2E" stroke-width="2" stroke-linecap="round"/><path d="M8 14a1 1 0 1 0 0 2v-2Zm9 2h1v-2h-1v2Zm-9 0h9v-2H8v2Z" fill="#2E2E2E"/><path d="M23 21.571 28.833 28 37 19" stroke="#C63031" stroke-width="2"/></svg>
